Numix-GalliumOS/64/actions/format-text-none.svg

<?xml version="1.0" encoding="UTF-8" standalone="no"?>
<svg
   xmlns:dc="http://purl.org/dc/elements/1.1/"
   xmlns:cc="http://creativecommons.org/ns#"
   xmlns:rdf="http://www.w3.org/1999/02/22-rdf-syntax-ns#"
   xmlns:svg="http://www.w3.org/2000/svg"
   xmlns="http://www.w3.org/2000/svg"
   xmlns:sodipodi="http://sodipodi.sourceforge.net/DTD/sodipodi-0.dtd"
   xmlns:inkscape="http://www.inkscape.org/namespaces/inkscape"
   width="64"
   height="64"
   viewBox="0 0 64 64"
   id="svg2"
   version="1.1"
   inkscape:version="0.91 r13725"
   sodipodi:docname="format-text-none.svg">
  <metadata
     id="metadata14">
    <rdf:RDF>
      <cc:Work
         rdf:about="">
        <dc:format>image/svg+xml</dc:format>
        <dc:type
           rdf:resource="http://purl.org/dc/dcmitype/StillImage" />
      </cc:Work>
    </rdf:RDF>
  </metadata>
  <defs
     id="defs12" />
  <sodipodi:namedview
     pagecolor="#ffffff"
     bordercolor="#666666"
     borderopacity="1"
     objecttolerance="10"
     gridtolerance="10"
     guidetolerance="10"
     inkscape:pageopacity="0"
     inkscape:pageshadow="2"
     inkscape:window-width="1366"
     inkscape:window-height="704"
     id="namedview10"
     showgrid="false"
     inkscape:zoom="8"
     inkscape:cx="44.655994"
     inkscape:cy="15.728814"
     inkscape:window-x="0"
     inkscape:window-y="27"
     inkscape:window-maximized="1"
     inkscape:current-layer="svg2">
    <inkscape:grid
       type="xygrid"
       id="grid4142" />
  </sodipodi:namedview>
  <g
     style="fill:#268bd2"
     id="g4"
     transform="translate(5.6272753e-4,4)">
    <path
       d="m 16,8 0,8 24,0 c 1.710938,0 4,2.457031 4,4 l 0,4 -20,0 c -3.679688,0 -6.941406,1.535156 -9,3.875 -2.058594,2.339844 -3.027344,5.242188 -3,8.125 0.02344,2.882812 1.074219,5.8125 3.125,8.125 C 17.171875,46.4375 20.367188,48 24,48 l 28,0 0,-28 C 52,13.460938 46.71875,8 40,8 Z m 8,24 20,0 0,8 -20,0 C 22.40625,40 21.730469,39.5625 21.125,38.875 20.515625,38.1875 20.007812,37.117188 20,36 19.992188,34.882812 20.417969,33.785156 21,33.125 21.582031,32.464844 22.308594,32 24,32 Z"
       id="path6"
       inkscape:connector-curvature="0" />
  </g>
  <path
     style="fill:#dc322f;fill-opacity:1"
     d="M 64,56.250002 56.250004,48.5 64,40.749998 56.250004,33 48.500002,40.749998 40.749998,33 33,40.749998 40.749998,48.5 33,56.250002 40.749998,64 48.500002,56.250002 56.250004,64 Z"
     id="path6-0"
     inkscape:connector-curvature="0" />
</svg>

<svg xmlns="http://www.w3.org/2000/svg" viewBox="0 0 64 64">
 <g transform="translate(5.6272753e-4,4)" style="fill:#268bd2">
  <path d="m 16 8 0 8 24 0 c 1.711 0 4 2.457 4 4 l 0 4 -20 0 c -3.68 0 -6.941 1.535 -9 3.875 -2.059 2.34 -3.03 5.242 -3 8.125 0.023 2.883 1.074 5.813 3.125 8.125 c 2.047 2.313 5.242 3.875 8.875 3.875 l 28 0 0 -28 c 0 -6.539 -5.281 -12 -12 -12 m -16 24 20 0 0 8 -20 0 c -1.594 0 -2.27 -0.438 -2.875 -1.125 -0.609 -0.688 -1.117 -1.758 -1.125 -2.875 -0.008 -1.117 0.418 -2.215 1 -2.875 0.582 -0.66 1.309 -1.125 3 -1.125"/>
 </g>
 <path d="m 64 56.25 -7.75 -7.75 7.75 -7.75 -7.75 -7.75 -7.75 7.75 -7.75 -7.75 -7.75 7.75 7.75 7.75 -7.75 7.75 7.75 7.75 7.75 -7.75 7.75 7.75" style="fill:#dc322f;fill-opacity:1"/>
</svg>
